icons/outline/gender-genderfluid.svg

<!--
tags: [identity, indefinite]
category: Gender
version: "1.64"
unicode: "f0e9"
-->
<svg
  xmlns="http://www.w3.org/2000/svg"
  width="24"
  height="24"
  viewBox="0 0 24 24"
  fill="none"
  stroke="currentColor"
  stroke-width="2"
  stroke-linecap="round"
  stroke-linejoin="round"
>
  <path d="M10 15.464a4 4 0 1 0 4 -6.928a4 4 0 0 0 -4 6.928zm5.464 -1.464l3 -5.196m-12.928 6.391l3 -5.196m3.464 2.001h.01m-3.01 -3l-6 -6m2.5 5.5l3 -3m12.5 15.5l-6 -6m2 5l3 -3m-17 -10v-4h4" />
</svg>

<!--
tags: [identity, indefinite]
category: Gender
version: "1.64"
unicode: "f0e9"
-->
<svg
  xmlns="http://www.w3.org/2000/svg"
  width="24"
  height="24"
  viewBox="0 0 24 24"
  fill="none"
  stroke="currentColor"
  stroke-width="2"
  stroke-linecap="round"
  stroke-linejoin="round"
>
    <path d="M10 15.464a4 4 0 1 0 4 -6.928a4 4 0 0 0 -4 6.928zM15.464 14l3 -5.196M5.536 15.195l3 -5.196M12 12h.01M9 9l-6 -6M5.5 8.5l3 -3M21 21l-6 -6M17 20l3 -3M3 7v-4h4" />
</svg>
